public/img_securityicon_1.svg

<svg width="57" height="78" viewBox="0 0 57 78" fill="none" xmlns="http://www.w3.org/2000/svg">
<g clip-path="url(#clip0_9_47801)">
<path fill-rule="evenodd" clip-rule="evenodd" d="M55.2662 4.73728L48.3131 0.724316C39.3329 -1.42145 0.577384 22.0322 0.577384 29.8641L7.53146 33.8771C10.4173 26.0441 25.7092 17.0045 31.9182 13.3394C37.8035 10.0273 49.7781 3.4261 55.2662 4.73728Z" fill="#EFF3FA"/>
<path fill-rule="evenodd" clip-rule="evenodd" d="M1.1945 29.5412L7.25875 33.0384C10.7851 25.121 25.8607 16.2402 31.6303 12.8386C38.7484 8.81654 47.246 4.41543 52.8537 4.01322L48.1057 1.27114C42.0264 -0.0299929 21.5601 10.6878 9.58345 20.1497C4.5217 24.1476 1.50722 27.5352 1.1945 29.5412ZM7.53726 34.4682C7.43883 34.4682 7.3424 34.4406 7.25875 34.3887L0.285464 30.3757C0.199281 30.3235 0.128321 30.2496 0.079624 30.1614C0.0309273 30.0732 0.00619617 29.9737 0.00794199 29.873C0.00794199 26.8625 4.82037 22.4322 8.8565 19.2387C20.0267 10.4223 41.5779 -1.47492 48.4516 0.161051C48.5021 0.176125 48.5505 0.197786 48.5954 0.225429L55.5494 4.23846C55.6709 4.30577 55.7642 4.41446 55.8122 4.54476C55.8602 4.67507 55.8598 4.81831 55.8111 4.94834C55.7623 5.07838 55.6685 5.18655 55.5466 5.25318C55.4248 5.31981 55.2831 5.34042 55.1473 5.3113C49.6592 4.00413 36.9887 11.1624 32.2105 13.8582C26.3896 17.2849 10.9178 26.404 8.08629 34.0881C8.05861 34.1687 8.01285 34.242 7.95256 34.3023C7.89227 34.3626 7.81902 34.4083 7.73837 34.4359C7.67103 34.4583 7.60003 34.4676 7.52922 34.4632L7.53726 34.4682Z" fill="#035BE8"/>
<path fill-rule="evenodd" clip-rule="evenodd" d="M7.41696 34.8362C8.34103 65.0196 3.51355 83.4305 31.9032 74.9229C60.2778 50.685 55.4654 37.8406 56.4236 6.57521C56.7202 -3.41858 7.12235 25.1853 7.41696 34.8362Z" fill="white"/>
<path fill-rule="evenodd" clip-rule="evenodd" d="M8.01534 34.8202C8.14506 39.2555 8.16012 43.3529 8.16012 47.3116C8.21442 60.8609 8.22951 70.6456 13.4491 74.5249C16.9252 77.092 22.6998 77.0578 31.6076 74.4002C55.5328 53.937 55.5821 41.6044 55.6665 19.2388C55.6816 15.265 55.6967 11.1524 55.8305 6.55926C55.8643 6.33238 55.8311 6.10055 55.735 5.89227C55.6389 5.68399 55.484 5.5083 55.2895 5.38681C52.7315 3.89162 42.4853 7.76586 30.8827 14.6194C17.5094 22.5268 7.88159 31.0193 8.01633 34.8192L8.01534 34.8202ZM20.3529 77.5837C17.6573 77.7222 14.9904 76.9757 12.7583 75.458C7.07618 71.2348 7.04198 61.2038 6.99271 47.3166C6.99271 43.363 6.97762 39.2726 6.84388 34.8554C6.67998 29.854 18.5079 20.577 30.2915 13.6169C39.7976 8.00008 52.1895 2.21341 55.8797 4.38431C56.2555 4.61063 56.56 4.93807 56.7584 5.32925C56.9568 5.72043 57.0412 6.15958 57.0019 6.59645C56.848 11.1756 56.8481 15.278 56.833 19.2467C56.7535 41.9844 56.7043 54.5161 32.2824 75.3714C32.2164 75.4188 32.1443 75.457 32.0682 75.4851C28.2823 76.7365 24.3378 77.4424 20.3529 77.5837Z" fill="#035BE8"/>
<path fill-rule="evenodd" clip-rule="evenodd" d="M31.9048 43.3789L31.8897 74.9228H31.9048C52.2393 57.5586 55.5343 46.0405 56.1075 29.4073L31.9048 43.3789Z" fill="#EFF3FA"/>
<path fill-rule="evenodd" clip-rule="evenodd" d="M32.4787 43.7156V73.6548C50.9007 57.6621 54.775 46.7453 55.4798 30.4389L32.4787 43.7117V43.7156ZM31.8885 75.508C31.7698 75.5097 31.6535 75.4745 31.5556 75.4074C31.4805 75.3516 31.4193 75.2789 31.3771 75.1953C31.3349 75.1117 31.3127 75.0195 31.3123 74.9258V43.3819C31.3137 43.2799 31.3415 43.1799 31.3929 43.0918C31.4444 43.0037 31.5177 42.9305 31.6059 42.8791L55.8086 28.9075C55.8992 28.8551 56.002 28.8275 56.1067 28.8275C56.2114 28.8275 56.3143 28.8551 56.4049 28.9075C56.4952 28.96 56.5691 29.0366 56.6183 29.1288C56.6675 29.221 56.6901 29.3251 56.6834 29.4294C56.0801 46.9525 52.2672 58.2956 32.2816 75.3672C32.2263 75.4079 32.1662 75.4417 32.1026 75.4677C32.034 75.4941 31.962 75.5078 31.8885 75.508Z" fill="#035BE8"/>
<path fill-rule="evenodd" clip-rule="evenodd" d="M7.41694 34.835C7.68038 43.3929 7.48128 51.0016 7.71858 57.3243L31.9072 43.3678L31.9223 13.3432C19.5987 20.4511 7.27114 30.0126 7.41694 34.835Z" fill="#EFF3FA"/>
<path fill-rule="evenodd" clip-rule="evenodd" d="M8.01452 34.8212C8.14423 39.2615 8.1593 43.3591 8.1593 47.3228C8.17941 50.5173 8.17938 53.5509 8.25982 56.3331L31.3152 43.0322L31.3303 14.359C17.6373 22.3749 7.88275 30.9128 8.01648 34.8223L8.01452 34.8212ZM7.71282 57.9068C7.60844 57.9057 7.50554 57.882 7.41118 57.8374C7.32714 57.7834 7.2564 57.7111 7.20417 57.626C7.15194 57.5409 7.11957 57.445 7.10953 57.3456C7.00898 54.2909 6.99492 50.9105 6.98084 47.3278C6.98084 43.3752 6.96575 39.2837 6.83201 34.8595C6.66811 29.6197 19.1546 20.0231 31.6159 12.8387C31.7032 12.7874 31.8027 12.7604 31.904 12.7604C32.0053 12.7604 32.1047 12.7874 32.1921 12.8387C32.2801 12.8901 32.3533 12.9634 32.4046 13.0515C32.4559 13.1396 32.4835 13.2395 32.4847 13.3415L32.4696 43.366C32.4712 43.4668 32.4465 43.5662 32.3978 43.6544C32.3491 43.7426 32.2782 43.8165 32.1921 43.8688L7.98433 57.8253C7.90403 57.8758 7.81169 57.904 7.71687 57.9068H7.71282Z" fill="#035BE8"/>
<path fill-rule="evenodd" clip-rule="evenodd" d="M0.577384 29.8294C0.69704 29.3428 0.840836 28.7968 1.02484 28.2055C3.3144 23.4273 14.0573 15.4557 24.8997 9.30197L29.0525 11.6961L31.9182 13.3451C25.6901 17.0112 10.4173 26.0507 7.53146 33.8776L0.577384 29.8647V29.8294Z" fill="#035BE8"/>
<path fill-rule="evenodd" clip-rule="evenodd" d="M1.257 29.5762L7.25184 33.0382C10.6143 25.4888 24.4723 17.0645 30.7497 13.3552L24.8986 9.97264C13.1471 16.6784 3.56058 24.257 1.54956 28.459C1.44901 28.821 1.33539 29.2041 1.25595 29.5772L1.257 29.5762ZM7.53034 34.463C7.43193 34.4629 7.3355 34.4354 7.25184 34.3836L0.278612 30.3705C0.188257 30.3146 0.114762 30.2352 0.0658977 30.1408C0.0170332 30.0465 -0.00537646 29.9407 0.00108927 29.8346C-0.00217151 29.7855 0.00430366 29.7363 0.0201758 29.6898C0.134804 29.193 0.278595 28.6371 0.462604 28.0358C2.98544 22.7518 14.404 14.586 24.616 8.79529C24.7047 8.74515 24.8048 8.7187 24.9066 8.7187C25.0085 8.7187 25.1086 8.74515 25.1972 8.79529L32.2006 12.8385C32.2887 12.8899 32.3619 12.9632 32.4132 13.0513C32.4644 13.1394 32.492 13.2393 32.4933 13.3412C32.4924 13.4415 32.4666 13.5399 32.4181 13.6277C32.3697 13.7155 32.3001 13.7898 32.2157 13.844C26.3838 17.2758 10.9079 26.3947 8.07637 34.0788C8.03578 34.191 7.96156 34.2879 7.86384 34.3563C7.76611 34.4247 7.64962 34.4612 7.53034 34.4609V34.463Z" fill="#035BE8"/>
<path fill-rule="evenodd" clip-rule="evenodd" d="M0.577384 29.8649L1.13943 59.0097C1.35259 70.3187 5.37665 70.5972 13.829 75.4749C9.13023 72.202 8.35599 66.7683 7.91356 61.1756L7.53146 33.8789L0.577384 29.8649Z" fill="#EFF3FA"/>
<path fill-rule="evenodd" clip-rule="evenodd" d="M1.1894 30.8876L1.71628 59.0048C1.90029 68.2133 4.58201 69.7829 10.4824 72.9613C8.21191 69.7135 7.68098 65.5557 7.33307 61.2199L6.956 34.2199L1.1894 30.8876ZM13.8297 76.0602C13.7298 76.0591 13.632 76.0317 13.5461 75.9808C12.3094 75.2769 11.1923 74.6737 10.1536 74.1086C3.89025 70.726 0.741947 69.0328 0.547883 59.0259L0.000878101 29.8761C-0.00491228 29.7734 0.0180239 29.6712 0.0670367 29.5808C0.116049 29.4904 0.189206 29.4154 0.278401 29.3643C0.368569 29.3111 0.471181 29.2825 0.575869 29.2817C0.680557 29.2808 0.783635 29.3076 0.874687 29.3592L7.82883 33.3722C7.91733 33.4239 7.99133 33.497 8.04406 33.5849C8.09679 33.6728 8.12653 33.7725 8.13047 33.8749L8.50754 61.1676C8.93387 66.6608 9.69403 71.8753 14.1746 74.9995C14.2744 75.0725 14.3486 75.1751 14.3867 75.2927C14.4248 75.4103 14.4249 75.537 14.3869 75.6547C14.349 75.7723 14.2749 75.8751 14.1752 75.9483C14.0755 76.0214 13.9554 76.0613 13.8317 76.0623L13.8297 76.0602Z" fill="#035BE8"/>
<path fill-rule="evenodd" clip-rule="evenodd" d="M1.02092 53.4211L7.71061 57.3345V57.3244L7.69146 57.1857C7.68959 56.6522 7.73944 56.1198 7.84029 55.5959L7.5276 33.8769L0.573456 29.8639L1.02092 53.4211Z" fill="#035BE8"/>
<path fill-rule="evenodd" clip-rule="evenodd" d="M1.60065 53.0843L7.15313 56.3321C7.17324 56.0545 7.21743 55.7811 7.26771 55.4925L6.95502 34.2199L1.18842 30.8876L1.60065 53.0843ZM7.6951 57.9108C7.59698 57.9137 7.50012 57.8879 7.41653 57.8364L0.726904 53.9228C0.643124 53.8707 0.573704 53.7984 0.525053 53.7125C0.476402 53.6266 0.45003 53.53 0.448339 53.4313L0.000878101 29.874C-0.00491228 29.7713 0.0180239 29.6692 0.0670367 29.5788C0.116049 29.4884 0.189206 29.4134 0.278401 29.3623C0.368569 29.3091 0.471181 29.2806 0.575869 29.2797C0.680557 29.2788 0.783635 29.3056 0.874687 29.3573L7.82883 33.3702C7.91733 33.4219 7.99133 33.4951 8.04406 33.5829C8.09679 33.6708 8.12653 33.7706 8.13047 33.873L8.42309 55.592C8.33177 56.1152 8.28863 56.6457 8.29433 57.1768V57.3306C8.29358 57.4349 8.26531 57.5371 8.21234 57.627C8.15937 57.7169 8.08359 57.7912 7.99269 57.8424C7.90138 57.8905 7.79926 57.9144 7.69608 57.9118L7.6951 57.9108Z" fill="#035BE8"/>
</g>
<defs>
<clipPath id="clip0_9_47801">
<rect width="56.688" height="77.159" fill="white" transform="scale(1.00551)"/>
</clipPath>
</defs>
</svg>

<svg xmlns="http://www.w3.org/2000/svg" width="57" height="78" fill="none" viewBox="0 0 57 78"><g fill-rule="evenodd" clip-path="url(#a)" clip-rule="evenodd"><path fill="#eff3fa" d="M55.266 4.737 48.313.724C39.333-1.42.577 22.032.577 29.864l6.954 4.013c2.886-7.833 18.178-16.873 24.387-20.538 5.886-3.312 17.86-9.913 23.348-8.602"/><path fill="#035be8" d="m1.195 29.541 6.064 3.497c3.526-7.917 18.602-16.798 24.371-20.2 7.118-4.021 15.616-8.423 21.224-8.825l-4.748-2.742C42.026-.03 21.56 10.688 9.583 20.15c-5.061 3.998-8.076 7.385-8.388 9.391m6.342 4.927a.53.53 0 0 1-.278-.08L.285 30.377a.58.58 0 0 1-.277-.503c0-3.01 4.812-7.44 8.849-10.634C20.027 10.422 41.576-1.475 48.451.16q.076.023.143.064l6.954 4.013a.58.58 0 0 1-.402 1.073c-5.488-1.307-18.158 5.851-22.936 8.547-5.821 3.427-21.293 12.546-24.125 20.23a.56.56 0 0 1-.348.348.6.6 0 0 1-.209.027z"/><path fill="#fff" d="M7.417 34.836c.924 30.184-3.903 48.595 24.486 40.087C60.278 50.685 55.465 37.84 56.423 6.575c.297-9.994-49.3 18.61-49.006 28.261"/><path fill="#035be8" d="M8.015 34.82c.13 4.435.145 8.533.145 12.492.054 13.549.07 23.334 5.29 27.213 3.475 2.567 9.25 2.533 18.158-.125C55.533 53.937 55.582 41.604 55.667 19.24c.015-3.974.03-8.087.163-12.68a1.18 1.18 0 0 0-.54-1.172c-2.559-1.495-12.805 2.379-24.407 9.232-13.374 7.908-23.001 16.4-22.867 20.2zm12.338 42.764a12.38 12.38 0 0 1-7.595-2.126c-5.682-4.223-5.716-14.254-5.765-28.141 0-3.954-.015-8.044-.15-12.462-.163-5.001 11.665-14.278 23.449-21.238C39.798 8 52.19 2.213 55.88 4.384a2.34 2.34 0 0 1 1.122 2.212c-.154 4.58-.154 8.682-.169 12.65-.08 22.738-.129 35.27-24.55 56.125a1 1 0 0 1-.215.114 42 42 0 0 1-11.715 2.099"/><path fill="#eff3fa" d="m31.905 43.379-.015 31.544h.015c20.334-17.364 23.63-28.882 24.203-45.516z"/><path fill="#035be8" d="M32.479 43.716v29.939c18.422-15.993 22.296-26.91 23-43.216l-23 13.273zm-.59 31.792a.57.57 0 0 1-.333-.1.6.6 0 0 1-.244-.482V43.382a.59.59 0 0 1 .294-.503l24.203-13.971a.6.6 0 0 1 .596 0 .56.56 0 0 1 .278.521c-.603 17.524-4.416 28.867-24.401 45.938a.8.8 0 0 1-.18.1.6.6 0 0 1-.213.041"/><path fill="#eff3fa" d="M7.417 34.835c.263 8.558.064 16.167.302 22.49l24.188-13.957.015-30.025C19.6 20.451 7.272 30.013 7.417 34.835"/><path fill="#035be8" d="M8.015 34.821c.13 4.44.144 8.538.144 12.502.02 3.194.02 6.228.1 9.01l23.056-13.3.015-28.674C17.637 22.375 7.883 30.913 8.016 34.822zm-.302 23.086a.7.7 0 0 1-.302-.07.66.66 0 0 1-.301-.491c-.101-3.055-.115-6.435-.13-10.018 0-3.953-.014-8.044-.148-12.469-.164-5.24 12.323-14.836 24.784-22.02a.57.57 0 0 1 .576 0 .59.59 0 0 1 .293.502l-.015 30.025a.58.58 0 0 1-.278.503L7.984 57.825a.53.53 0 0 1-.267.082z"/><path fill="#035be8" d="M.577 29.83c.12-.487.264-1.033.448-1.624 2.29-4.779 13.032-12.75 23.875-18.904l4.153 2.394 2.865 1.65C25.69 17.01 10.418 26.05 7.531 33.877L.577 29.865z"/><path fill="#035be8" d="m1.257 29.576 5.995 3.462c3.362-7.55 17.22-15.973 23.498-19.683l-5.851-3.382C13.147 16.678 3.56 24.257 1.549 28.459c-.1.362-.214.745-.293 1.118zm6.273 4.887a.53.53 0 0 1-.278-.08L.279 30.37A.59.59 0 0 1 0 29.836a.4.4 0 0 1 .02-.145c.114-.497.258-1.053.442-1.654 2.522-5.284 13.941-13.45 24.153-19.24a.59.59 0 0 1 .581 0l7.004 4.043a.59.59 0 0 1 .292.502.6.6 0 0 1-.277.503c-5.832 3.432-21.308 12.55-24.14 20.235a.58.58 0 0 1-.546.382z"/><path fill="#eff3fa" d="M.577 29.865 1.14 59.01c.214 11.309 4.238 11.587 12.69 16.465-4.699-3.273-5.473-8.707-5.915-14.3L7.53 33.88z"/><path fill="#035be8" d="m1.19 30.888.526 28.117c.184 9.208 2.866 10.778 8.766 13.956-2.27-3.248-2.801-7.405-3.149-11.741l-.377-27zM13.83 76.06a.57.57 0 0 1-.284-.08c-1.237-.703-2.354-1.306-3.392-1.871C3.89 70.726.742 69.033.548 59.026L0 29.876a.55.55 0 0 1 .277-.512.6.6 0 0 1 .597-.005l6.954 4.013a.61.61 0 0 1 .301.503l.378 27.293c.426 5.493 1.186 10.707 5.667 13.831a.588.588 0 0 1-.343 1.063z"/><path fill="#035be8" d="m1.02 53.421 6.69 3.913v-.01l-.019-.138a8.3 8.3 0 0 1 .15-1.59l-.313-21.72-6.955-4.012z"/><path fill="#035be8" d="m1.6 53.084 5.553 3.248a8 8 0 0 1 .115-.84L6.955 34.22l-5.767-3.332zm6.095 4.827a.5.5 0 0 1-.278-.075l-6.69-3.913a.59.59 0 0 1-.279-.492L.001 29.874a.55.55 0 0 1 .277-.512.6.6 0 0 1 .597-.005l6.954 4.013a.61.61 0 0 1 .301.503l.293 21.719a8.7 8.7 0 0 0-.129 1.585v.154a.59.59 0 0 1-.301.511.6.6 0 0 1-.297.07z"/></g><defs><clipPath id="a"><path fill="#fff" d="M0 0h57v77.584H0z"/></clipPath></defs></svg>
